img/icon-messenger-white.svg

<svg width="128" height="128" viewBox="0 0 128 128" fill="none" xmlns="http://www.w3.org/2000/svg">
<path d="M118.38 7.27295H9.44631C6.834 7.27295 4.74414 9.43329 4.74414 12.1337V92.0662C4.74414 94.7666 6.834 96.9269 9.44631 96.9269H95.6527L123.213 127.982V12.2687C123.213 9.56831 120.992 7.27295 118.38 7.27295ZM48.3698 26.3109C55.2924 26.3109 60.7783 32.1168 60.7783 39.1379C60.7783 46.294 55.1618 51.9649 48.3698 51.9649C41.4472 51.9649 35.9613 46.159 35.9613 39.1379C35.8307 32.1168 41.4472 26.3109 48.3698 26.3109ZM71.8806 78.294H24.7283V70.7328C24.7283 57.2307 35.3082 52.9101 48.3698 52.9101C61.4314 52.9101 72.0112 57.2307 72.0112 70.7328V78.294H71.8806ZM86.3789 42.5134C91.0811 42.5134 94.9996 46.429 94.9996 51.4248C94.9996 56.2856 91.2117 60.3362 86.3789 60.3362C81.6768 60.3362 77.7583 56.4206 77.7583 51.4248C77.7583 46.429 81.6768 42.5134 86.3789 42.5134ZM102.575 78.294H79.9788V70.7328C79.9788 67.2223 79.4563 64.2518 78.6726 61.6864C80.8931 61.0113 83.5054 60.7413 86.2483 60.7413C95.2608 60.7413 102.445 63.7117 102.445 73.0282V78.294H102.575Z" fill="white"/>
</svg>

<svg width="128" height="128" fill="none" xmlns="http://www.w3.org/2000/svg"><path d="M118.38 7.273H9.446c-2.612 0-4.702 2.16-4.702 4.86v79.933c0 2.7 2.09 4.86 4.702 4.86h86.207l27.56 31.056V12.269c0-2.7-2.221-4.996-4.833-4.996zM48.37 26.31c6.922 0 12.408 5.806 12.408 12.827 0 7.156-5.616 12.827-12.408 12.827-6.923 0-12.409-5.806-12.409-12.827-.13-7.021 5.486-12.827 12.409-12.827zm23.51 51.983H24.729v-7.561c0-13.502 10.58-17.823 23.642-17.823 13.061 0 23.641 4.32 23.641 17.823v7.561h-.13zm14.499-35.78c4.702 0 8.62 3.915 8.62 8.91 0 4.862-3.787 8.912-8.62 8.912-4.702 0-8.62-3.915-8.62-8.911 0-4.996 3.918-8.912 8.62-8.912zm16.196 35.78H79.979v-7.561c0-3.51-.523-6.481-1.306-9.047 2.22-.675 4.832-.945 7.575-.945 9.013 0 16.197 2.97 16.197 12.287v5.266h.13z" fill="#fff"/></svg>
